packages/calcite-ui-icons/icons/transfer-24.svg

<?xml version="1.0" encoding="UTF-8"?><svg id="icons" xmlns="http://www.w3.org/2000/svg" viewBox="0 0 24 24"><rect width="24" height="24" style="fill:none;"/><path d="M7,7c-1.6543,0-3-1.3457-3-3s1.3457-3,3-3,2.99,1.3457,2.99,3-1.3357,3-2.99,3ZM7,2c-1.10303,0-2,.89697-2,2s.89697,2,2,2,2-.89697,2-2-.89697-2-2-2ZM11.998,14H2v-2.5c0-1.92969,1.57031-3.5,3.5-3.5h3c1.92969,0,3.498,1.57031,3.498,3.5v2.5ZM3,13h8v-1.5c0-1.37891-1.12158-2.5-2.5-2.5h-3c-1.37842,0-2.5,1.12109-2.5,2.5v1.5ZM18,16c-1.6543,0-3-1.3457-3-3s1.3457-3,3-3,2.99,1.3457,2.99,3-1.3357,3-2.99,3ZM18,11c-1.10303,0-2,.89697-2,2s.89697,2,2,2,2-.89697,2-2-.89697-2-2-2ZM22.998,23h-9.998v-2.5c0-1.92969,1.57031-3.5,3.5-3.5h3c1.92969,0,3.498,1.57031,3.498,3.5v2.5ZM14,22h8v-1.5c0-1.37891-1.12158-2.5-2.5-2.5h-3c-1.37842,0-2.5,1.12109-2.5,2.5v1.5ZM9.25342,16.64648l-.70703.70703,1.64648,1.64648h-2.69287c-1.37842,0-2.5-1.12109-2.5-2.5v-1.5h-1v1.5c0,1.92969,1.57031,3.5,3.5,3.5h2.69287l-1.64648,1.64648.70703.70703,2.85352-2.85352-2.85352-2.85352Z"/></svg>

<svg xmlns="http://www.w3.org/2000/svg" viewBox="0 0 24 24"><path fill="none" d="M0 0h24v24H0z"/><path d="M7 7C5.346 7 4 5.654 4 4s1.346-3 3-3 2.99 1.346 2.99 3S8.654 7 7 7zm0-5c-1.103 0-2 .897-2 2s.897 2 2 2 2-.897 2-2-.897-2-2-2zm4.998 12H2v-2.5C2 9.57 3.57 8 5.5 8h3c1.93 0 3.498 1.57 3.498 3.5V14zM3 13h8v-1.5C11 10.121 9.878 9 8.5 9h-3A2.503 2.503 0 0 0 3 11.5V13zm15 3c-1.654 0-3-1.346-3-3s1.346-3 3-3 2.99 1.346 2.99 3-1.336 3-2.99 3zm0-5c-1.103 0-2 .897-2 2s.897 2 2 2 2-.897 2-2-.897-2-2-2zm4.998 12H13v-2.5c0-1.93 1.57-3.5 3.5-3.5h3c1.93 0 3.498 1.57 3.498 3.5V23zM14 22h8v-1.5c0-1.379-1.122-2.5-2.5-2.5h-3a2.503 2.503 0 0 0-2.5 2.5V22zm-4.747-5.354l-.707.708L10.193 19H7.5A2.503 2.503 0 0 1 5 16.5V15H4v1.5C4 18.43 5.57 20 7.5 20h2.693l-1.647 1.646.707.708 2.854-2.854-2.854-2.854z"/></svg>
